imgs/face-footer.svg

<svg width="10" height="18" viewBox="0 0 10 18" fill="none" xmlns="http://www.w3.org/2000/svg">
<path d="M2.96583 17.5738V9.62164H0.863098V6.75846H2.96583V4.31294C2.96583 2.39123 4.20792 0.626465 7.06995 0.626465C8.22875 0.626465 9.08562 0.737555 9.08562 0.737555L9.0181 3.41127C9.0181 3.41127 8.14423 3.40277 7.19062 3.40277C6.15852 3.40277 5.99317 3.87839 5.99317 4.66782V6.75846H9.10015L8.96496 9.62164H5.99317V17.5738H2.96583Z" fill="white" fill-opacity="0.8"/>
</svg>

<svg xmlns="http://www.w3.org/2000/svg" width="10" height="18" fill="none" xmlns:v="https://vecta.io/nano"><path d="M2.966 17.574V9.622H.863V6.758h2.103V4.313C2.966 2.391 4.208.626 7.07.626c1.159 0 2.016.111 2.016.111l-.068 2.674-1.827-.009c-1.032 0-1.197.476-1.197 1.265v2.091H9.1l-.135 2.863H5.993v7.952H2.966z" fill="#fff" fill-opacity=".8"/></svg>
